packages/icons/src/ruler-horizontal.svg

<svg width="15" height="15" viewBox="0 0 15 15" fill="none" xmlns="http://www.w3.org/2000/svg">
  <path
    fill-rule="evenodd"
    clip-rule="evenodd"
    d="M0.5 4C0.223858 4 0 4.22386 0 4.5V10.5C0 10.7761 0.223858 11 0.5 11H14.5C14.7761 11 15 10.7761 15 10.5V4.5C15 4.22386 14.7761 4 14.5 4H0.5ZM1 10V5H2.075V7.5C2.075 7.73472 2.26528 7.925 2.5 7.925C2.73472 7.925 2.925 7.73472 2.925 7.5V5H4.075V6.5C4.075 6.73472 4.26528 6.925 4.5 6.925C4.73472 6.925 4.925 6.73472 4.925 6.5V5H6.075V6.5C6.075 6.73472 6.26528 6.925 6.5 6.925C6.73472 6.925 6.925 6.73472 6.925 6.5V5H8.075V7.5C8.075 7.73472 8.26528 7.925 8.5 7.925C8.73472 7.925 8.925 7.73472 8.925 7.5V5H10.075V6.5C10.075 6.73472 10.2653 6.925 10.5 6.925C10.7347 6.925 10.925 6.73472 10.925 6.5V5H12.075V6.5C12.075 6.73472 12.2653 6.925 12.5 6.925C12.7347 6.925 12.925 6.73472 12.925 6.5V5H14V10H1Z"
    fill="currentColor"
  />
</svg>

<svg xmlns="http://www.w3.org/2000/svg" width="15" height="15" fill="none"><path fill="currentColor" fill-rule="evenodd" d="M.5 4a.5.5 0 0 0-.5.5v6a.5.5 0 0 0 .5.5h14a.5.5 0 0 0 .5-.5v-6a.5.5 0 0 0-.5-.5zm.5 6V5h1.075v2.5a.425.425 0 0 0 .85 0V5h1.15v1.5a.425.425 0 0 0 .85 0V5h1.15v1.5a.425.425 0 0 0 .85 0V5h1.15v2.5a.425.425 0 0 0 .85 0V5h1.15v1.5a.425.425 0 0 0 .85 0V5h1.15v1.5a.425.425 0 0 0 .85 0V5H14v5z" clip-rule="evenodd"/></svg>
